packages/core/src/svgs/tokens/mono/ERN.svg

<svg width="24" height="24" viewBox="0 0 24 24" fill="none" xmlns="http://www.w3.org/2000/svg">
<path fill-rule="evenodd" clip-rule="evenodd" d="M11.9199 14.2828L12.9999 15.2229C14.1649 16.3228 15.3599 17.0628 17.1199 16.9979C18.4292 16.9794 19.6779 16.4429 20.5925 15.5057C21.5071 14.5687 22.0132 13.3073 21.9997 11.998C21.9997 9.248 19.8148 6.99805 17.1199 6.99805C15.9398 6.99805 14.8049 7.28303 13.9549 8.04803L12.7299 9.248L13.3799 9.90303L14.4999 8.80301C15.1899 8.18302 16.0499 7.99802 16.9999 7.99802C19.1748 7.99802 20.9998 9.78299 20.9998 11.998C20.9998 14.2128 19.2298 15.9978 17.0548 15.9978C15.6349 16.0479 14.705 15.4378 13.76 14.5479L12.6849 13.4429L13.41 12.6929V12.698L15.5099 10.588C15.9046 10.2495 16.413 10.0737 16.9325 10.096C17.4519 10.1184 17.9436 10.3373 18.3077 10.7084C18.6718 11.0795 18.8813 11.5751 18.8938 12.0949C18.9063 12.6147 18.7208 13.1197 18.3749 13.508C17.5798 14.3129 16.2548 14.0579 15.5999 13.3379L14.775 12.5679L14.04 13.3379L14.8549 14.1679C15.9449 15.2179 18.0048 15.3429 19.1548 14.1679C19.7024 13.5935 20.0044 12.8283 19.997 12.0348C19.9895 11.2413 19.6731 10.4819 19.1149 9.91797C18.5307 9.33554 17.7403 9.00724 16.9155 9.00443C16.0906 9.00162 15.298 9.32454 14.7099 9.90303L10.185 14.4879C9.24502 15.3779 8.36504 16.0529 6.94506 15.9978C6.42467 15.9972 5.90953 15.8937 5.42924 15.6934C4.94896 15.493 4.513 15.1997 4.14641 14.8304C3.77983 14.461 3.48985 14.0228 3.29314 13.541C3.09642 13.0593 2.99685 12.5434 3.00015 12.0229C2.99082 10.9664 3.40089 9.94935 4.14044 9.19485C4.87998 8.44031 5.88861 8.0099 6.94506 7.99802C7.89505 7.99802 8.81003 8.23801 9.49502 8.858L11.3149 10.628L9.02003 12.8979L8.40503 13.5279C8.09388 13.8455 7.68686 14.0517 7.2468 14.1151C6.80673 14.1783 6.35809 14.0949 5.97009 13.8779L7.68006 12.138L9.43002 10.318L9.04003 9.91797C8.77334 9.63181 8.45061 9.40361 8.09191 9.24757C7.73321 9.09153 7.34624 9.01101 6.95507 9.01101C6.5639 9.01101 6.17692 9.09153 5.81822 9.24757C5.45953 9.40361 5.13679 9.63181 4.87011 9.91797C4.31609 10.4866 4.00604 11.2491 4.00604 12.0429C4.00604 12.8368 4.31609 13.5993 4.87011 14.1679C5.14126 14.4464 5.46544 14.6677 5.82354 14.8189C6.18163 14.97 6.56638 15.0479 6.95507 15.0479C7.34375 15.0479 7.7285 14.97 8.0866 14.8189C8.44469 14.6677 8.76889 14.4464 9.04003 14.1679L12.6 10.6129L11.975 9.98295L10.045 8.10302C9.19503 7.33304 8.06005 7.05304 6.88007 7.05304C5.57476 7.06492 4.32757 7.59454 3.41254 8.5255C2.49752 9.45647 1.98951 10.7126 2.00016 12.0179C2.00016 14.7629 4.18512 16.9878 6.88007 16.9878C8.64003 17.0528 9.79502 16.3178 10.96 15.2179L11.9199 14.2779V14.2828ZM5.5551 10.588C4.86011 11.298 4.85511 12.2279 5.37009 13.0379L7.93505 10.388C7.07007 9.81297 6.25008 9.87795 5.5551 10.588Z" fill="white"/>
</svg>

<svg xmlns="http://www.w3.org/2000/svg" width="24" height="24" fill="none" viewBox="0 0 24 24">
    <path fill="#fff" fill-rule="evenodd" d="m11.92 14.283 1.08.94c1.165 1.1 2.36 1.84 4.12 1.775a4.95 4.95 0 0 0 4.88-5c0-2.75-2.185-5-4.88-5-1.18 0-2.315.285-3.165 1.05l-1.225 1.2.65.655 1.12-1.1c.69-.62 1.55-.805 2.5-.805 2.175 0 4 1.785 4 4s-1.77 4-3.945 4c-1.42.05-2.35-.56-3.295-1.45l-1.075-1.105.725-.75v.005l2.1-2.11a2.05 2.05 0 0 1 2.865 2.92c-.795.805-2.12.55-2.775-.17l-.825-.77-.735.77.815.83c1.09 1.05 3.15 1.175 4.3 0a3.05 3.05 0 0 0-.04-4.25 3.13 3.13 0 0 0-4.405-.015l-4.525 4.585c-.94.89-1.82 1.565-3.24 1.51A3.95 3.95 0 0 1 3 12.023a3.99 3.99 0 0 1 3.945-4.025c.95 0 1.865.24 2.55.86l1.82 1.77-2.295 2.27-.615.63a2.026 2.026 0 0 1-2.435.35l1.71-1.74 1.75-1.82-.39-.4a2.85 2.85 0 0 0-4.17 0 3.045 3.045 0 0 0 0 4.25 2.91 2.91 0 0 0 4.17 0l3.56-3.555-.625-.63-1.93-1.88c-.85-.77-1.985-1.05-3.165-1.05A4.925 4.925 0 0 0 2 12.018c0 2.745 2.185 4.97 4.88 4.97 1.76.065 2.915-.67 4.08-1.77l.96-.94zm-6.365-3.695c-.695.71-.7 1.64-.185 2.45l2.565-2.65c-.865-.575-1.685-.51-2.38.2" clip-rule="evenodd"/>
</svg>
